X: 1
T: String Quartet in E Major opus 54 no 3 mvt 3
C: Franz Joseph Haydn
%%abc-version 2.0
%%abcx-abcm2ps-target-version 5.9.1 (29 Sep 2008)
%%abc-creator hum2abc beta
%%abcx-conversion-date 2021/02/14 14:38:30
%%abc-copyright Copyright (c) 1994, 2000 Center for Computer Assisted Research in the Humanities
%%abc-edited-by Frances Bennion
%%abcx-initial-encoding-date 1997/04/15
%%gracespace 0 6 6
%%humdrum-veritas 1772647422
%%humdrum-veritas-data 2963246144
%%linebreak <none>
%%barnumbers 0
L: 1/4
M: 3/4
N: Derived from op54n3-03.krn
Q: "Menuetto: Allegretto"
%%staves [1 2 3 4]
V: 1
V: 2
V: 3 clef=alto
V: 4 clef=bass
K: E
[V:1]z2 d//e3// [I:setbarnb1] |
[V:2]z2 D//E3// |
[V:3]z2 z |
[V:4]z2 z |
[V:1]g/<e/ a/<f/ b//g3// |
[V:2]G/<E/ A/<F/ B//G3// |
[V:3]z3 |
[V:4]z3 |
[V:1]e e' e' |
[V:2]E e e |
[V:3]e/c/ B/A/ G/F/ |
[V:4]E/C/ B,/A,/ G,/F,/ |
[V:1]e' >d' c'/b/ |
[V:2]e >d c/B/ |
[V:3]E/D/ C/B,/ A,/G,/ |
[V:4]E,/D,/ C,/B,,/ A,,/G,,/ |
[V:1]a z ^e//f3// |
[V:2]A z ^E//F3// |
[V:3]F,/G,/ A,/G,/ F,/E,/ |
[V:4]F,,/G,,/ A,,/G,,/ F,,/E,,/ |
[V:1]g/<f/ a/<g/ b//a3// |
[V:2]G/<F/ A/<G/ B//A3// |
[V:3]D, z2 |
[V:4]D,, z2 |
[V:1]c'2 A |
[V:2]c E E |
[V:3]z C C |
[V:4]z A, A, |
[V:1]c'2 d |
[V:2]c A A |
[V:3]z F F |
[V:4]z B,, B,, |
[V:1]e z ^A,//B,3// |
[V:2]G z2 |
[V:3]E E, z |
[V:4]E, E,, z |
[V:1]^A,/<B,/ C/<B,/ A |
[V:2]z2 F |
[V:3]z2 B, |
[V:4]z2 D, |
[V:1]G E ^A//B3// |
[V:2]E z2 |
[V:3]B,2 z |
[V:4]E, G, z |
[V:1]^A/<B/ c/<B/ a |
[V:2]z2 f |
[V:3]z2 B |
[V:4]z2 D |
[V:1]g e ^^f//g3// |
[V:2]e z2 |
[V:3]B2 z |
[V:4]E G z |
[V:1]c' c' c' |
[V:2]G G G |
[V:3]E E E |
[V:4]C C C |
[V:1]^b/<c'/ d'/<c'/ e'//c'3// |
[V:2]G3 |
[V:3]E3 |
[V:4]C C C |
[V:1]g' >f' e'/d'/ |
[V:2]G G G |
[V:3]D D D |
[V:4]^B, B, B, |
[V:1]c' ^b/<c'/ d'//c'3// |
[V:2]G3 |
[V:3]E3 |
[V:4]C C C |
[V:1]f' >e' d'/c'/ |
[V:2]F F F |
[V:3]C C C |
[V:4]^A, A, A, |
[V:1]b ^a/<b/ c'//b3// |
[V:2]F3 |
[V:3]D3 |
[V:4]B, B, B, |
[V:1]f' >e' d'/c'/ |
[V:2]F F F |
[V:3]C C C |
[V:4]^A, A, A, |
[V:1]b ^a/<b/ d'//b3// |
[V:2]F z F |
[V:3]D z B- |
[V:4]B, z D, |
[V:1]z ^^f/<g/ b//g3// |
[V:2]G z E |
[V:3]B z B,- |
[V:4]E, z E, |
[V:1]z f/<d/ c//^A3// |
[V:2]D z ^A |
[V:3]B, z F- |
[V:4]F, z F, |
[V:1]z ^a/<b/ d'//b3// |
[V:2]B z F |
[V:3]F z B- |
[V:4]D, z D, |
[V:1]z ^^f/<g/ b//g3// |
[V:2]G z E |
[V:3]B z B,- |
[V:4]E, z E, |
[V:1]z f/<d/ c//^A3// |
[V:2]D z ^A |
[V:3]B, z F |
[V:4]F, z F, |
[V:1]B z ^A,//B,3// |
[V:2]B z ^A,//B,3// |
[V:3]D z ^A,//B,3// |
[V:4]B,, B, ^A,,//B,,3// |
[V:1]D/<B,/ E/<C/ F//D3// |
[V:2]D/<B,/ E/<C/ F//D3// |
[V:3]D/<B,/ E/<C/ F//D3// |
[V:4]D,/<B,,/ E,/<C,/ F,//D,3// |
[V:1]B, z ^A//B3// |
[V:2]B, B z |
[V:3]B, B z |
[V:4]B,, B, z |
[V:1]d/<B/ e/<c/ f//d3// |
[V:2]z3 |
[V:3]z3 |
[V:4]z3 |
[V:1]g/<e/ a/<f/ d//e3// |
[V:2]z2 D//E3// |
[V:3]z3 |
[V:4]z3 |
[V:1]g/<e/ a/<f/ b//g3// |
[V:2]G/<E/ A/<F/ B//G3// |
[V:3]z3 |
[V:4]z3 |
[V:1]e e' e' |
[V:2]E e e |
[V:3]e/c/ B/A/ G/F/ |
[V:4]E/C/ B,/A,/ G,/F,/ |
[V:1]e' >d' c'/b/ |
[V:2]e >d c/B/ |
[V:3]E/D/ C/B,/ A,/G,/ |
[V:4]E,/D,/ C,/B,,/ A,,/G,,/ |
[V:1]a z ^e//f3// |
[V:2]A z ^E//F3// |
[V:3]F,/G,/ A,/G,/ F,/E,/ |
[V:4]F,,/G,,/ A,,/G,,/ F,,/E,,/ |
[V:1]g/<f/ a/<g/ b//a3// |
[V:2]G/<F/ A/<G/ B//A3// |
[V:3]D, z2 |
[V:4]D,, z2 |
[V:1]c'2 A |
[V:2]c E E |
[V:3]z C C |
[V:4]z A, A, |
[V:1]a'2 d' |
[V:2]D A A |
[V:3]z F F |
[V:4]z B,, B,, |
[V:1]e' z B |
[V:2]G z B |
[V:3]E z B |
[V:4]E, z B, |
[V:1]e e e |
[V:2]e e e |
[V:3]e e e |
[V:4]E E E |
[V:1]d f/d/ A |
[V:2]d f/d/ A |
[V:3]d f/d/ A |
[V:4]D F/D/ A, |
[V:1]G B/G/ E |
[V:2]G B/G/ E |
[V:3]G B/G/ E |
[V:4]G, B,/G,/ E, |
[V:1]B,2 ^B, |
[V:2]B,2 ^B, |
[V:3]B,2 ^B, |
[V:4]B,,2 ^B,, |
[V:1]C g g |
[V:2]C E E |
[V:3]C G, G, |
[V:4]C, C, C, |
[V:1]^^f/g/ a/g/ ^f/d/ |
[V:2]D2 G |
[V:3]G,3 |
[V:4]^B,,3 |
[V:1]e/g/ d/B/ c/^A/ |
[V:2]G F/D/ E/C/ |
[V:3]C F F, |
[V:4]C, F, F, |
[V:1]B z B |
[V:2]B, z2 |
[V:3]B, z2 |
[V:4]B,, B, z |
[V:1]f/a/ f/d/ e/g/ |
[V:2]z A G |
[V:3]z D/F/ E |
[V:4]z B,, E, |
[V:1]d/f/ d/^B/ c/e/ |
[V:2]z F E |
[V:3]z ^B,/D/ C |
[V:4]z G, C |
[V:1]B/=d/ B/G/ A/c/ |
[V:2]z =D C |
[V:3]z G,/B,/ A, |
[V:4]z E, A, |
[V:1]c/B/ e/d/ f/e/ |
[V:2]E3- |
[V:3]B,3 |
[V:4]G,3 |
[V:1]d/c/ B/A/ G/F/ |
[V:2]E C C |
[V:3]C3 |
[V:4]A,3 |
[V:1]E D B |
[V:2]B, z B |
[V:3]G, F, z |
[V:4]B, B,, z |
[V:1]a a a |
[V:2]f f f |
[V:3]z2 D |
[V:4]z2 B, |
[V:1]g b/g/ e |
[V:2]e z e |
[V:3]G G G |
[V:4]E E E |
[V:1]a c' c' |
[V:2]E E E |
[V:3]A z A |
[V:4]C E/C/ A, |
[V:1]b2 b |
[V:2]E z E |
[V:3]G G G |
[V:4]G, B,/G,/ E, |
[V:1]^a e'/c'/ a |
[V:2]E3 |
[V:3]C3 |
[V:4]C,3 |
[V:1]a c'/a/ g |
[V:2]F2 G |
[V:3]B,3 |
[V:4]D,2 E, |
[V:1]f a/f/ d/B/ |
[V:2]c z A |
[V:3]A,2 F, |
[V:4]A,,2 B,, |
[V:1]e z2 |]
[V:2]G z2 |]
[V:3]E, z2 |]
[V:4]E, E,, z |]

